!!!COM: Fux, Johann Joseph
!!!OMD: Gradus ad Parnassum Exercise
!!!YEC: CC0 1.0 Universal (Public Domain). Mark Gotham and FourScoreAndMore.org waive all rights to this document.
**kern	**kern	**kern	**kern
*part4	*part3	*part2	*part1
*staff4	*staff3	*staff2	*staff1
*I"4	*I"3	*I"2	*I"1
*I'Pno	*I'Pno	*I'Pno	*I'Pno
!!LO:PB:g=z
*clefF4	*clefGv2	*clefG2	*clefG2
*k[]	*k[]	*k[]	*k[]
!!LO:TX:omd:t=
*M4/4	*M4/4	*M4/4	*M4/4
=167	=167	=167	=167
!	!	!	!LO:TX:a:t=Fig. 177; Species&colon; 3; Modal final&colon; d; Cantus firmus&colon; 2
1D	1A	1d	4d/
.	.	.	4e/
.	.	.	4f/
.	.	.	4g/
=168	=168	=168	=168
1D	1F	1f	4a/
.	.	.	4f/
.	.	.	4a/
.	.	.	4b\
=169	=169	=169	=169
1C	1G	1e	4cc\
.	.	.	4ee\
.	.	.	4dd\
.	.	.	4cc\
=170	=170	=170	=170
1G	1B	1d	4b\
.	.	.	4g/
.	.	.	4b\
.	.	.	4dd\
=171	=171	=171	=171
1E	1G	1g	4ee\
.	.	.	4dd\
.	.	.	4b\
.	.	.	4cc#X\
=172	=172	=172	=172
1D	1A	1f	4dd\
.	.	.	4ff\
.	.	.	4ee\
.	.	.	4dd\
!!LO:LB:g=z
=173	=173	=173	=173
1F	1A	1a	4cc\
.	.	.	4a/
.	.	.	4cc\
.	.	.	4dd\
=174	=174	=174	=174
1C	1c	1g	4ee\
.	.	.	4dd\
.	.	.	4cc\
.	.	.	4b\
=175	=175	=175	=175
1D	1F	1f	4a/
.	.	.	4b\
.	.	.	4cc\
.	.	.	4dd\
=176	=176	=176	=176
1AA	1A	1e	4cc#X\
.	.	.	4a/
.	.	.	4b\
.	.	.	4cc#\
=177	=177	=177	=177
1D	1A	1d	1dd
==	==	==	==
*-	*-	*-	*-
!!!software: music21 v.9.7.1
!!!software: music21 v.9.7.1
!!!software: MuseScore 3.4.2
!!!RDF**kern: > = above
!!!RDF**kern: < = below
